P2
# Synthetic GLYPH fixture, CC0-1.0
16 12
255
255 255 255 255 255 255 255 255 255 255 255 255 255 255 255 255
255 255 255 255 255 255 255 255 255 255 255 255 255 255 255 255
255 255 160 160 160 160 160 160 160 160 160 160 160 160 255 255
255 255 160 160 160  96  96  96  96  96  96 160 160 160 255 255
255 255 160 160 160  96  64  64  64  64  96 160 160 160 255 255
255 255 160 160 160  96  64  32  32  64  96 160 160 160 255 255
255 255 160 160 160  96  64  32  32  64  96 160 160 160 255 255
255 255 160 160 160  96  64  64  64  64  96 160 160 160 255 255
255 255 160 160 160  96  96  96  96  96  96 160 160 160 255 255
255 255 160 160 160 160 160 160 160 160 160 160 160 160 255 255
255 255 255 255 255 255 255 255 255 255 255 255 255 255 255 255
255 255 255 255 255 255 255 255 255 255 255 255 255 255 255 255
